X: 1
T: THE MAID OF THE MILL
S: ALP from Powell
O: Bucknell
B: Morris Ring
P: A.(A2B)3.A2
Z: 2005 John Chambers <jc@trillian.mit.edu>
M: 6/8
L: 1/8
K: G
P: A
|: GAB DED | GAB c3 | GAG D2A | G6 :|
P: B
| B2A G2G | A2A BAG | A2A BdB | DAB G3 |
| B2A G2G | A2A BAG | BdB D2B | G3 G3 ||
P: Alt
| "Alt.A2"GAB d3 | | "Alt.B4"D3 A2B |
